X:1
T:The Clare Jig
S:The Pub Scouts
M:6/8
K:ADor
L:1/8
gf|eAA fAA|gfg age|dBA G3|BGB dBd|
eAA fAA|gfg age|dBd gdB|ABA A2 :|
efg a3|aba age|dBd g3|bag fed|
efg a3|aba agf|dBd gdB|ABA A2 z|
efg a3|aba age|dBd g3|gba ged|
efg a2 b|c'2 b age|dBg dBG|EAA A2 |]
